!!!COM:	Bach, Johann Sebastian
!!!OMV:	Mit Fried und Freud ich fahr dahin
!!!OTL:	Mit Fried und Freud ich fahr dahin
**recip	**kern	**fb	**kern	**kern	**kern
*	*part4	*part4	*part3	*part2	*part1
*	*staff4	*	*staff3	*staff2	*staff1
*	*I"Voice	*	*I"Voice	*I"Voice	*I"Voice
*	*I'V	*	*I'V	*I'V	*I'V
*	*clefF4	*	*clefGv2	*clefG2	*clefG2
*	*k[]	*	*k[]	*k[]	*k[]
*	*M4/4	*	*M4/4	*M4/4	*M4/4
4	4D	.	4F	4A	4d
=2	=2	=2	=2	=2	=2
4	4C#X	6	4A	4e	4a
4	4D	.	4d	4f	4a
4	4E	5	4B	4e	4g
8	8F#XL	6	8AL	8dL	4dd
8	8G#XJ	6 5	8BJ	8eJ	.
=3	=3	=3	=3	=3	=3
8	4A	5	8cnL	8eL	4ccn
8	.	#6\	8dJ	8f#XJ	.
8	4E	#	8eL	4g#X	4b
8	.	.	8dJ	.	.
4	4AA;	.	4c;	4e;	4a;
4	4E	6	[4c	4gn	4cc
=4	=4	=4	=4	=4	=4
8	4F	.	8cL]	4fn	4a
8	.	.	8BJ	.	.
8	8EL	6 4 2	4A	4f	4cc
8	8DJ	.	.	.	.
8	2E	5 #	8G#X	8BL	8bL
8	.	6 4	4A	8cJ	8aJ
8	.	5 	.	4d	4b
8	.	#	8G#	.	.
=5	=5	=5	=5	=5	=5
2.	2.AA;	.	2.A;	2.c#X;	2.a;
4	4D	6	4F	4d	4b
=6	=6	=6	=6	=6	=6
4	4Cn	.	4G	4e	4ccn
4	4D	6	4d	4f	4b
4	4E	.	4c	4g	4cc
4	4F	.	4c	4f	4a
=7	=7	=7	=7	=7	=7
4	4G	6	4B-X	4e	4g
8	4A	6	4c	8fL	4f
8	.	5	.	8eJ	.
8	4B	6	4G	4d	4g
8	.	5	.	.	.
4	4c	.	4G	4c	4e
=8	=8	=8	=8	=8	=8
!!linebreak:original
2	2G;	3	2G;	2B;	2d;
4	4.C#X	6	4A	4.e	4.a
8	.	5	4A	.	.
8	8AA	.	.	8c#X	8g
=9	=9	=9	=9	=9	=9
8	4.D	5	8AL	8dL	8fL
8	.	.	8GJ	8cnJ	8eJ
8	.	-r6	4F	4B-X	4d
8	8E	.	.	.	.
2	2F;	.	2F;	2A;	2c;
=10	=10	=10	=10	=10	=10
4	4C#X	6 5	4A	4e	4a
4	4D	.	4A	4f	4f
4	4E	6	4G	4g	4ccn
4	4F	-r5	4c	4f	4a
=11	=11	=11	=11	=11	=11
8	8GL	6	8B-XL	8eL	8gL
8	8AJ	6 4	8AJ	8dJ	8fJ
8	4B-X	6 4 #2|	4G	8c#XL	4g
8	.	3	.	8dJ	.
4	4A;	#	4E;	4c#;	4a;
4	4AA	7 #	4A	4c#	4g
=12	=12	=12	=12	=12	=12
8	4D	.	4A	8dL	4f
8	.	.	.	8cnJ	.
8	4GG	6 5	8GL	4B-X	8eL
8	.	.	8FJ	.	8dJ
8	8GL	#4| 2	4E	4A	4c#X
8	8FJ	.	.	.	.
8	8EL	7 4 2	4A	4d	4f
8	8DJ	.	.	.	.
=13	=13	=13	=13	=13	=13
8	8C#XL	.	4.A	8eL	8eL
8	8DJ	.	.	8fJ	8dJ
8	4AA	4	.	4c#X	4e
8	.	#	8G	.	.
4	4D;	.	4F#X;	4A;	4d;
=||	=||	=||	=||	=||	=||
*-	*-	*-	*-	*-	*-
!!!system-decoration: s1,s2,s3,s4
